X:1
T:Title
L:1/8
Q:1/4=100
M:4/4
K:G
V:1 treble nm="Church Organ, Staff"
V:1
 D2 B2 AG A2 | D2 G2 z4 | D2 E2 FG A2 | Bc F2 z4 | EE c2 dc B2 | cdec AG F2 | AA d4 G2- | %7
w: By~Rev.~R.~F.~Smith * * * *|||||||
 G2 F4 E2- | E2 D6 | D2 c2 BA B2 | B2 e6 | A2 A2 Bc B2 | AA d6 | G2 G2 AB c2 | AABA Bc d2 | %15
w: ||||||||
 BBGA B2 A2- | AA G6 |] %17
w: ||

